X: 3410
T: SKYE BOAT SONG
Q: "Moderato."
%R: air, waltz, jig
B: James Kerr "Merry Melodies" v.3 p.45 #410
Z: 2016 John Chambers <jc:trillian.mit.edu>
M: 6/8
L: 1/8
K: G
[|\
D>ED G2G | A>BA d3 | B>AB E2E | D3- D2D |\
D>ED G>GG | A>BA d3 | B>AB E2E | D3- D2d |\
d>ed g2g | a>ba d'3 |
b>ab e2e | d3- d2d |\
d>ed g>gg | a>ba d'3 | b>ab e2e | d3- d2z H|:\
bgb b3 | aea a3 | geg g2g | e3- e2z :|
%%begintext align
%% Skye Boat Song:--The Air by kind permission of Editors of "Songs of the North," J. B. Cramer & Co.
%%endtext

%%sep 1 1 500
%%sep 1 1 500

